!!!!SEGMENT: pl-cz--iii-370--001-001_krogulski-jozef-wladyslaw--msza-c-kyrie.krn
!!!cenid: 18xx:938
!!!COM: Krogulski, Józef Władysław
!!!COM-rismid: pe30001797
!!!CDT: 1815/10/04-1842/01/09
!!!CNT: Polish
!!!OPR: Msza C
!!!OTL: Kyrie
!!!OMV: 001
!!!PDT:
!!!AGN: Sacred; Mass
!!!SMS-siglum: PL-CZ
!!!SMS-shelfmark: III-370
!!!SMS-shelfwork: 001-001 M
!!!SMS-variant:
!!!SMS-altvar:
!!!NIFC-rismid: 300000646
!!!URL-scan: http://repozytorium.nifc.pl/skany/pl-cz-nut--iii-370
!!!ONB-nifc: UWAGA: części Mszy: Kyrie, Gloria, Andante przed Ewangelią, Credo, Offertorium, Sanctus, Benedictus, Agnus, Na Benedykcyią
!!!AIN: 1 bass 1 organ 2 vox
!!!key: C
**kern	**kern	**dynam	**kern	**text	**dynam	**kern	**text	**dynam	**kern	**text	**dynam
*part4	*part4	*part4	*part3	*part3	*part3	*part2	*part2	*part2	*part1	*part1	*part1
*staff5	*staff4	*	*staff3	*staff3	*	*staff2	*staff2	*	*staff1	*staff1	*
*	*	*	*group1	*	*	*group1	*	*	*group1	*	*
*>[A,A,B]	*>[A,A,B]	*>[A,A,B]	*>[A,A,B]	*>[A,A,B]	*>[A,A,B]	*>[A,A,B]	*>[A,A,B]	*>[A,A,B]	*>[A,A,B]	*>[A,A,B]	*>[A,A,B]
*>A	*>A	*>A	*>A	*>A	*>A	*>A	*>A	*>A	*>A	*>A	*>A
*I"Organ	*	*	*I"Bas	*	*	*I"Śpiew drugi	*	*	*I"Śpiew pierwszy	*	*
*I'org	*	*	*I'B	*	*	*I'V 2	*	*	*I'V 1	*	*
*Iorgan	*	*	*Ibass	*	*	*Ivox	*	*	*Ivox	*	*
*ICklav	*	*	*ICvox	*	*	*ICvox	*	*	*ICvox	*	*
*	*	*	*IGcoro	*	*	*IGcoro	*	*	*IGcoro	*	*
*clefF4	*clefG2	*	*clefF4	*	*	*clefG2	*	*	*clefG2	*	*
*k[]	*k[]	*	*k[]	*	*	*k[]	*	*	*k[]	*	*
*C:	*C:	*	*C:	*	*	*C:	*	*	*C:	*	*
*M4/4	*M4/4	*	*M4/4	*	*	*M4/4	*	*	*M4/4	*	*
*met(c)	*met(c)	*	*met(c)	*	*	*met(c)	*	*	*met(c)	*	*
*all\right	*all\right	*	*all\right	*	*	*all\right	*	*	*all\right	*	*
!	!LO:TX:a:t=No 1	!	!LO:TX:a:t=No 1	!	!	!	!	!	!	!	!
!	!LO:TX:a:B:t=Majestozo	!LO:DY:a:rj	!LO:TX:a:B:t=Majestozo	!	!LO:DY:a:rj	!LO:TX:a:i:t=Głos 2	!	!LO:DY:a	!LO:TX:a:B:t=Moderato	!	!
4C 4CC/	4ee 4g\	f	4C/	Na	f	4f/	Na	f	4ee\	Na	.
=1	=1	=1	=1	=1	=1	=1	=1	=1	=1	=1	=1
*	*^	*	*	*	*	*	*	*	*	*	*
*	*2\right	*	*	*	*	*	*	*	*	*	*	*
[1C [1CC	4cc/	2e\	.	2.C/	sto-	.	(2e/	sto-	.	(4cc\	ſto-	.
.	4g/	.	.	.	.	.	.	.	.	4g\)	.	.
.	4a 4f/	2ryy	.	.	.	.	4f/)	.	.	4a\	.	.
.	4b 4d/	.	.	4C/	-pniach	.	4d/	-pniach	.	4b\	-pniach	.
=2	=2	=2	=2	=2	=2	=2	=2	=2	=2	=2	=2	=2
2.C] 2.CC/]	4.cc 4.e\	2.ryy	.	2C/	Twe-	.	(>4.e/	twe-	.	4.cc\	twe-	.
.	8dd 8f\	.	.	.	.	.	8f/)	.	.	8dd\	.	.
.	4ee 4g\	.	.	4C/	-go	.	4g/	-go	.	4ee\	-go	.
4E\	8cc/L	4g\	.	8E\	u-	.	8g/	u-	.	8cc\	u-	.
.	8b/J	.	.	8E\	-pa-	.	8g/	-pa-	.	8b\	-pa-	.
*	*v	*v	*	*	*	*	*	*	*	*	*	*
=3	=3	=3	=3	=3	=3	=3	=3	=3	=3	=3	=3
4F\	4a 4f/	.	4F\	-da-	.	(4f/	-da-	.	4a\	-da-	.
4D\	4ff 4a\	.	4D\	.	.	4a\	.	.	4ff\	.	.
!	!	!	!LO:N:vis=4.	!	!	!	!	!	!	!	!
4E\	4ee 4cc#X 4g\	.	4E\	.	.	4g\)	.	.	4ee\	.	.
4F\	4dd 4a 4f\	.	4F\	-my	.	4f/	-my	.	4dd\	-my	.
=4	=4	=4	=4	=4	=4	=4	=4	=4	=4	=4	=4
*2\right	*	*	*2\right	*	*	*	*	*	*2\right	*	*
2G\	2cc 2g 2e/	.	2G\	tro-	.	2e/	tro-	.	2cc\	tro-	.
!	!	!	!	!	!	!	!	!	!LO:SIC:v:s=-nu	!	!
8GG/	8b 8g 8d/	.	8GG/	-nu	.	8d/	-nu	.	8b\	-ny	.
8r	8r	.	8r	.	.	8r	.	.	8r	.	.
4r	4g/	.	4r	.	.	4r	.	.	4g/	Po-	.
!	!	!	!	!	!	!LO:LB:g=original	!	!	!	!	!
=5	=5	=5	=5	=5	=5	=5	=5	=5	=5	=5	=5
*	*^	*	*	*	*	*	*	*	*	*	*
4r	2cc/	4r	.	4r	.	.	4r	.	.	2cc\	-te-	.
!	!	!LO:N:xstem	!	!	!	!	!	!	!	!	!	!
4C/	.	4e\	.	4C/	Po-	.	4e/	po-	.	.	.	.
4D/	4b 4f/	2ryy	.	4D/	-tę-	.	4f/	-tę-	.	4b\	-zny	.
!	!	!	!	!	!	!	!LO:N:vis=4	!	!	!	!	!
4C/	4cc 4e/	.	.	8C/	-żny	.	8e/	-zny	.	4cc\	sa-	.
!	!	!	!	!	!	!	!LO:N:vis=4	!	!	!	!	!
.	.	.	.	8C/	Sa-	.	8e/	sa-	.	.	.	.
!	!	!	!	!LO:LB:g=original	!	!	!	!	!	!	!	!
=6	=6	=6	=6	=6	=6	=6	=6	=6	=6	=6	=6	=6
!	!	!	!	!LO:SIC:v:l:s=-ba-	!	!	!	!	!	!	!	!
2BB/	2dd/	4d\	.	4BB/	-bab-	.	4d/	-ba-	.	4dd\	-ba-	.
.	.	4g\	.	4BB/	-oth	.	4g/	-oth	.	4dd\	-oth	.
4AA/	4cc 4e/	2ryy	.	4AA/	wie-	.	4e/	wie-	.	4cc\	wie-	.
4D/	4a 4f#X/	.	.	4D/	-ku-	.	4f#X/	-ku-	.	4a\	-ku-	.
*	*v	*v	*	*	*	*	*	*	*	*	*	*
!LO:LB:g=original	!LO:LB:g=original	!	!	!	!	!	!	!	!	!	!
=7	=7	=7	=7	=7	=7	=7	=7	=7	=7	=7	=7
4E\	4g/	.	(4E/	-i-	.	(4g/	-i-	.	(4g/	-i-	.
!	!	!	!	!	!	!LO:SIC:v:s=4f#/	!	!	!	!	!
4D\	4b 4f#X/	.	4D/	.	.	4f/	.	.	4b/	.	.
4C\	4cc 4e/	.	4C/)	.	.	4e/)	.	.	4cc/)	.	.
!	!	!	!	!	!	!LO:SIC:v:s=4f#/	!	!	!	!	!
4D\	4a 4f#/	.	4D/	sty	.	4f/	sty	.	4a/	sty	.
=8	=8	=8	=8	=8	=8	=8	=8	=8	=8	=8	=8
2D 2DD/	2a 2f#X 2c/	.	2D/	Bo-	.	2f#X/	Bo-	.	2a/	Bo-	.
4G 4GG/	4g 4B/	.	4G/	-ze	.	4g/	-ze	.	4g/	-ze	.
8D/L	4r	.	4r	.	.	4r	.	.	4r	.	.
8BB/J	.	.	.	.	.	.	.	.	.	.	.
!	!	!	!	!	!	!	!	!	!LO:LB:g=original	!	!
=9	=9	=9	=9	=9	=9	=9	=9	=9	=9	=9	=9
!	!	!LO:DY:rj	!	!	!LO:DY:a:rj	!	!	!	!	!	!
[1G [1GG	2dd 2fn/	p	2GG/	Ja-	p	2fn/	Ja-	.	2dd\	Ja-	.
!	!	!	!	!	!	!LO:LB:g=original	!	!	!	!	!
.	4b 4d/	.	4GG/	-kaz	.	4d/	-kaz	.	4b\	-kaz	.
.	4cc 4e/	.	4GG/	o-	.	4e/	o-	.	4cc\	o-	.
=10	=10	=10	=10	=10	=10	=10	=10	=10	=10	=10	=10
1G] 1GG]	2dd 2f/	.	2GG/	-fia-	.	2f/	-fia-	.	2dd\	-fia-	.
.	2b 2d/	.	2GG/	-ra	.	2d/	-ra	.	2b\	-ra	.
=11	=11	=11	=11	=11	=11	=11	=11	=11	=11	=11	=11
*	*^	*	*	*	*	*	*	*	*	*	*
4C/	4cc 4e/	2ryy	.	4C/	mil-	.	4e/	mil-	.	4cc\	mil-	.
4E/	4cc 4g/	.	.	4E/	-sza	.	4g/	-sza	.	4cc\	-sza	.
4D/	4dd 4b/	2g\	.	4D/	Ci	.	4b/	Ci	.	4dd\	ci	.
4C/	4ee 4cc/	.	.	4C/	bydź	.	4cc/	bydź	.	4ee\	bydz	.
!	!	!	!	!LO:LB:g=original	!	!	!	!	!	!	!	!
=12	=12	=12	=12	=12	=12	=12	=12	=12	=12	=12	=12	=12
*	*	*	*	*	*	*	*2\right	*	*	*	*	*
(2G\	2ee 2cc 2g\	2ryy	.	2G\	mo-	.	2cc\	mo-	.	2ee\	mo-	.
!	!LO:N:vis=4	!	!	!	!	!	!	!	!	!	!	!
8G\)	8dd 8b/	8g\	.	8G\	-ze	.	8b\	-ze	.	8dd\	-ze	.
!	!	!	!	!	!	!LO:DY:a:t=fo	!	!	!	!	!	!
8r	8r	8ryy	.	8r	.	f	8r	.	.	8r	.	.
!	!	!	!LO:DY:rj	!	!	!	!	!	!	!	!	!LO:DY:a:rj
4G\	4dd 4b\	4ryy	f	4G\	Nad	.	4b\	Nad	.	4dd\	Nad	f
*	*v	*v	*	*	*	*	*	*	*	*	*	*
=13	=13	=13	=13	=13	=13	=13	=13	=13	=13	=13	=13
4c\	2ee 2cc\	.	(4c\	tę	.	2cc\	te	.	2ee\	tę	.
4B\	.	.	4B\)	.	.	.	.	.	.	.	.
4A\	2ee 2cc#X\	.	4A\	o-	.	2cc#X\	o-	.	2ee\	o-	.
4G\	.	.	4G\	.	.	.	.	.	.	.	.
=14	=14	=14	=14	=14	=14	=14	=14	=14	=14	=14	=14
*	*^	*	*	*	*	*	*	*	*	*	*
!	!LO:N:vis=1	!	!	!	!	!	!	!	!	!	!	!
4F\	2ff	4dd\	.	(4F\	-fia-	.	(4dd\	-fia-	.	2ff\	-fia-	.
4D\	.	4a\	.	4D\)	.	.	4a/)	.	.	.	.	.
4E\	2ryy	4ee 4cc#X 4g\	.	4E\	-rę	.	4g/	-rę	.	4ee\	-rę	.
4F\	.	4dd 4f/	.	4F\	Chry-	.	4f/	Chry-	.	4dd\	Chry-	.
*	*v	*v	*	*	*	*	*	*	*	*	*	*
!LO:LB:g=original	!LO:LB:g=original	!	!	!	!	!LO:LB:g=original	!	!	!	!	!
=15	=15	=15	=15	=15	=15	=15	=15	=15	=15	=15	=15
1G	4ccn 4e\	.	2G\	-stu-	.	(>4e/	-stu-	.	(4cc\	-stu-	.
.	4b 4d\	.	.	.	.	4d/)	.	.	4b\)	.	.
.	4cc 4e\	.	4G\	-sa	.	4e/	-sa	.	4cc\	-sa	.
.	4dd 4f\	.	4G\	za-	.	4f/	za-	.	4dd\	za-	.
=16	=16	=16	=16	=16	=16	=16	=16	=16	=16	=16	=16
4C\	2ee 2g\	.	(4C/	-ko-	.	2g/	-ko-	.	2ee\	-ko-	.
4E\	.	.	4E/)	.	.	.	.	.	.	.	.
8G\	8dd 8b\	.	8G\	-nu	.	8b/	-nu	.	8dd\	-nu	.
8r	8r	.	8r	.	.	8r	.	.	8r	.	.
4G\	4dd 4b\	.	4G\	Nad	.	4b/	Nad	.	4dd\	nad	.
=17	=17	=17	=17	=17	=17	=17	=17	=17	=17	=17	=17
4c\	2ee 2cc\	.	(<4c\	tę	.	2cc\	te	.	2ee\	te	.
4B\	.	.	4B\)	.	.	.	.	.	.	.	.
4A\	2ee 2cc#X\	.	(<4A\	o-	.	2cc#X\	o-	.	2ee\	O-	.
4G\	.	.	4G\)	.	.	.	.	.	.	.	.
!	!	!	!LO:LB:g=original	!	!	!	!	!	!LO:LB:g=original	!	!
=18	=18	=18	=18	=18	=18	=18	=18	=18	=18	=18	=18
4F\	4ff 4dd\	.	4F\	-fia-	.	(4dd\	-fia-	.	(4ff\	-fia-	.
!	!	!	!	!	!	!LO:SIC:v:s=4cc#\)	!	!	!	!	!
4A\	4ee 4cc#X\	.	4A\	.	.	4cc\)	.	.	4ee\	.	.
4C#X\	4gg 4ee\	.	4C#X/	-rę	.	4ee\	-rę	.	4gg\)	-re	.
4D\	4ff 4dd\	.	4D/	Chry-	.	4dd\	Chry-	.	4ff\	Chri-	.
=19	=19	=19	=19	=19	=19	=19	=19	=19	=19	=19	=19
[1G	2ee 2ccn\	.	2G\	-stu-	.	2ccn\	-stu-	.	2ee\	-stu-	.
.	4dd 4b\	.	4G\	-sa	.	4b\	-sa	.	4dd\	-sa	.
.	4ee 4g\	.	4G\	za-	.	4g\	za-	.	4ee\	za-	.
=20	=20	=20	=20	=20	=20	=20	=20	=20	=20	=20	=20
2G\]	2dd 2b 2f/	.	2G\	-ko-	.	2f/	-ko-	.	2dd\	-ko-	.
4C/	4cc 4e/	.	4C/	-nu	.	4e/	-nu	.	4cc\	-nu	.
!	!	!	!	!	!	!LO:LB:g=original	!	!	!	!	!
=:|!	=:|!	=:|!	=:|!	=:|!	=:|!	=:|!	=:|!	=:|!	=:|!	=:|!	=:|!
*>B	*>B	*>B	*>B	*>B	*>B	*>B	*>B	*>B	*>B	*>B	*>B
4r	4r	.	4r	.	.	4r	.	.	4r	.	.
=21	=21	=21	=21	=21	=21	=21	=21	=21	=21	=21	=21
!	!	!	!	!	!	!	!	!	!LO:TX:t=P:problem=tekst słowny zgodnie z pozostałymi głosami	!	!
2F\	2a 2f/	.	2F\	A-	.	2f/	A-	.	2f/	A-	.
2D\	2dd 2a 2f/	.	2D\	.	.	2f/	.	.	2dd\	.	.
=22	=22	=22	=22	=22	=22	=22	=22	=22	=22	=22	=22
*	*	*	*	*	*	*	*	*	*	*ij	*
2G\	2cc 2g 2e/	.	2G\	.	.	2e/	.	.	2cc\	.	.
2GG/	2b 2f 2d/	.	2GG/	-men	.	2d/	-men	.	2b\	-[men	.
=23	=23	=23	=23	=23	=23	=23	=23	=23	=23	=23	=23
1G 1GG	1b 1f 1d	.	1GG	a-	.	1d	a-	.	1b	A-	.
=24	=24	=24	=24	=24	=24	=24	=24	=24	=24	=24	=24
2C/	2cc 2e/	.	2C/	-men	.	2e/	-men	.	2cc\	-men]	.
*	*	*	*	*	*	*	*	*	*	*Xij	*
2r	2r	.	2r	.	.	2r	.	.	2r	.	.
==	==	==	==	==	==	==	==	==	==	==	==
*-	*-	*-	*-	*-	*-	*-	*-	*-	*-	*-	*-
!!!system-decoration: [(g1)]{(s4,s5)}
!!!RDF**kern: > = above
!!!RDF**kern: < = below
!!!ENC: Kamil Watkowski
!!!END: 2020-09-04
!!!ENC: Andrzej Kubiczek
!!!END: 2021-11-07
